; G-Code generated by Simplify3D(R) Version 4.0.1
; Oct 27, 2018 at 9:09:39 AM
; Settings Summary
;   processName,Process1
;   applyToModels,xyzCalibration_cube (1)
;   profileName,Tronxy P802 (modified)
;   profileVersion,2018-10-04 22:58:44
;   baseProfile,Default
;   printMaterial,PLA
;   printQuality,Medium
;   printExtruders,
;   extruderName,Extruder 1
;   extruderToolheadNumber,0
;   extruderDiameter,0.4
;   extruderAutoWidth,0
;   extruderWidth,0.4
;   extrusionMultiplier,1
;   extruderUseRetract,1
;   extruderRetractionDistance,1
;   extruderExtraRestartDistance,0
;   extruderRetractionZLift,0
;   extruderRetractionSpeed,3600
;   extruderUseCoasting,0
;   extruderCoastingDistance,0.2
;   extruderUseWipe,1
;   extruderWipeDistance,2
;   primaryExtruder,0
;   layerHeight,0.3
;   topSolidLayers,3
;   bottomSolidLayers,3
;   perimeterOutlines,2
;   printPerimetersInsideOut,1
;   startPointOption,2
;   startPointOriginX,0
;   startPointOriginY,0
;   sequentialIslands,0
;   spiralVaseMode,0
;   firstLayerHeightPercentage,100
;   firstLayerWidthPercentage,100
;   firstLayerUnderspeed,0.5
;   useRaft,0
;   raftExtruder,0
;   raftTopLayers,2
;   raftBaseLayers,1
;   raftOffset,3
;   raftSeparationDistance,0.14
;   raftTopInfill,100
;   aboveRaftSpeedMultiplier,0.3
;   useSkirt,1
;   skirtExtruder,0
;   skirtLayers,1
;   skirtOutlines,4
;   skirtOffset,4
;   usePrimePillar,0
;   primePillarExtruder,999
;   primePillarWidth,12
;   primePillarLocation,7
;   primePillarSpeedMultiplier,1
;   useOozeShield,0
;   oozeShieldExtruder,999
;   oozeShieldOffset,2
;   oozeShieldOutlines,1
;   oozeShieldSidewallShape,1
;   oozeShieldSidewallAngle,30
;   oozeShieldSpeedMultiplier,1
;   infillExtruder,0
;   internalInfillPattern,Rectilinear
;   externalInfillPattern,Rectilinear
;   infillPercentage,10
;   outlineOverlapPercentage,15
;   infillExtrusionWidthPercentage,100
;   minInfillLength,5
;   infillLayerInterval,1
;   internalInfillAngles,45,-45
;   overlapInternalInfillAngles,0
;   externalInfillAngles,45,-45
;   generateSupport,0
;   supportExtruder,0
;   supportInfillPercentage,10
;   supportExtraInflation,0
;   supportBaseLayers,2
;   denseSupportExtruder,0
;   denseSupportLayers,0
;   denseSupportInfillPercentage,10
;   supportLayerInterval,1
;   supportHorizontalPartOffset,0.3
;   supportUpperSeparationLayers,2
;   supportLowerSeparationLayers,1
;   supportType,1
;   supportGridSpacing,4
;   maxOverhangAngle,45
;   supportAngles,0
;   temperatureName,Extruder 1,Heated Bed
;   temperatureNumber,0,0
;   temperatureSetpointCount,1,1
;   temperatureSetpointLayers,1,1
;   temperatureSetpointTemperatures,210,60
;   temperatureStabilizeAtStartup,1,1
;   temperatureHeatedBed,0,1
;   temperatureRelayBetweenLayers,0,0
;   temperatureRelayBetweenLoops,0,0
;   fanLayers,1,2
;   fanSpeeds,0,100
;   blipFanToFullPower,0
;   adjustSpeedForCooling,1
;   minSpeedLayerTime,15
;   minCoolingSpeedSlowdown,20
;   increaseFanForCooling,0
;   minFanLayerTime,45
;   maxCoolingFanSpeed,100
;   increaseFanForBridging,0
;   bridgingFanSpeed,100
;   use5D,1
;   relativeEdistances,0
;   allowEaxisZeroing,1
;   independentExtruderAxes,0
;   includeM10123,0
;   stickySupport,1
;   applyToolheadOffsets,0
;   gcodeXoffset,0
;   gcodeYoffset,0
;   gcodeZoffset,-0.1
;   overrideMachineDefinition,1
;   machineTypeOverride,0
;   strokeXoverride,220
;   strokeYoverride,220
;   strokeZoverride,180
;   originOffsetXoverride,0
;   originOffsetYoverride,0
;   originOffsetZoverride,0
;   homeXdirOverride,-1
;   homeYdirOverride,-1
;   homeZdirOverride,-1
;   flipXoverride,1
;   flipYoverride,-1
;   flipZoverride,1
;   toolheadOffsets,0,0|0,0|0,0|0,0|0,0|0,0
;   overrideFirmwareConfiguration,1
;   firmwareTypeOverride,RepRap (Marlin/Repetier/Sprinter)
;   GPXconfigOverride,r2
;   baudRateOverride,115200
;   overridePrinterModels,0
;   printerModelsOverride
;   startingGcode,G28 ; home all axes
;   layerChangeGcode,
;   retractionGcode,
;   toolChangeGcode,
;   endingGcode,G91 ; relative positioning,G1 E-1 F300 ; retract the filament a bit before lifting the nozzle, to release some of the pressure,G1 Z+0.5 E-5 X-20 Y-20 F9000 ; move Z up a bit and retract filament even more,G28 X0 Y0 ; move X/Y to min endstops, so the head is out of the way,M106 S0 ; turn off fan,M104 S0 ; turn off extruder,M140 S0 ; turn off bed,M84 ; disable motors
;   exportFileFormat,gcode
;   celebration,0
;   celebrationSong,Star Wars
;   postProcessing,
;   defaultSpeed,3600
;   outlineUnderspeed,0.5
;   solidInfillUnderspeed,0.8
;   supportUnderspeed,0.8
;   rapidXYspeed,4800
;   rapidZspeed,1002
;   minBridgingArea,50
;   bridgingExtraInflation,0
;   bridgingExtrusionMultiplier,1
;   bridgingSpeedMultiplier,1
;   useFixedBridgingAngle,0
;   fixedBridgingAngle,0
;   applyBridgingToPerimeters,0
;   filamentDiameters,1.75|1.75|1.75|1.75|1.75|1.75
;   filamentPricesPerKg,46|46|46|46|46|46
;   filamentDensities,1.25|1.25|1.25|1.25|1.25|1.25
;   useMinPrintHeight,0
;   minPrintHeight,0
;   useMaxPrintHeight,0
;   maxPrintHeight,0
;   useDiaphragm,0
;   diaphragmLayerInterval,20
;   robustSlicing,1
;   mergeAllIntoSolid,0
;   onlyRetractWhenCrossingOutline,1
;   retractBetweenLayers,1
;   useRetractionMinTravel,1
;   retractionMinTravel,3
;   retractWhileWiping,0
;   onlyWipeOutlines,1
;   avoidCrossingOutline,1
;   maxMovementDetourFactor,3
;   toolChangeRetractionDistance,12
;   toolChangeExtraRestartDistance,-0.5
;   toolChangeRetractionSpeed,600
;   externalThinWallType,0
;   internalThinWallType,2
;   thinWallAllowedOverlapPercentage,10
;   singleExtrusionMinLength,1
;   singleExtrusionMinPrintingWidthPercentage,50
;   singleExtrusionMaxPrintingWidthPercentage,200
;   singleExtrusionEndpointExtension,0.2
;   horizontalSizeCompensation,0
G90
M82
M106 S0
M140 S60
M190 S60
M104 S210 T0
M109 S210 T0
G28 ; home all axes
G92 E0
G1 E-1.0000 F3600
G1 Z0.200 F1002
; process Process1
; layer 1, Z = 0.300
T0
; tool H0.300 W0.400
; skirt
G1 X94.813 Y97.550 F4800
G1 E0.0000 F1080
G92 E0
G1 X97.550 Y94.813 E0.1931 F1800
G1 X98.065 Y94.600 E0.2209
G1 X121.935 Y94.600 E1.4118
G1 X122.450 Y94.813 E1.4396
G1 X125.187 Y97.550 E1.6327
G1 X125.400 Y98.065 E1.6605
G1 X125.400 Y121.935 E2.8514
G1 X125.187 Y122.450 E2.8792
G1 X122.450 Y125.187 E3.0723
G1 X121.935 Y125.400 E3.1001
G1 X98.065 Y125.400 E4.2910
G1 X97.550 Y125.187 E4.3188
G1 X94.813 Y122.450 E4.5119
G1 X94.600 Y121.935 E4.5397
G1 X94.600 Y98.065 E5.7306
G1 X94.813 Y97.550 E5.7584
G1 X95.152 Y97.777 F4800
G92 E0
G1 X97.777 Y95.152 E0.1852 F1800
G1 X98.144 Y95.000 E0.2050
G1 X121.856 Y95.000 E1.3880
G1 X122.223 Y95.152 E1.4078
G1 X124.848 Y97.777 E1.5930
G1 X125.000 Y98.144 E1.6129
G1 X125.000 Y121.856 E2.7958
G1 X124.848 Y122.223 E2.8157
G1 X122.223 Y124.848 E3.0008
G1 X121.856 Y125.000 E3.0207
G1 X98.144 Y125.000 E4.2037
G1 X97.777 Y124.848 E4.2235
G1 X95.152 Y122.223 E4.4087
G1 X95.000 Y121.856 E4.4285
G1 X95.000 Y98.144 E5.6115
G1 X95.152 Y97.777 E5.6313
G1 X95.491 Y98.003 F4800
G92 E0
G1 X98.003 Y95.491 E0.1772 F1800
G1 X98.224 Y95.400 E0.1891
G1 X121.776 Y95.400 E1.3642
G1 X121.997 Y95.491 E1.3761
G1 X124.509 Y98.003 E1.5533
G1 X124.600 Y98.224 E1.5652
G1 X124.600 Y121.776 E2.7403
G1 X124.509 Y121.997 E2.7522
G1 X121.997 Y124.509 E2.9294
G1 X121.776 Y124.600 E2.9413
G1 X98.224 Y124.600 E4.1163
G1 X98.003 Y124.509 E4.1282
G1 X95.491 Y121.997 E4.3055
G1 X95.400 Y121.776 E4.3174
G1 X95.400 Y98.224 E5.4924
G1 X95.491 Y98.003 E5.5043
G1 X95.830 Y98.230 F4800
G92 E0
G1 X98.230 Y95.830 E0.1693 F1800
G1 X98.303 Y95.800 E0.1733
G1 X121.697 Y95.800 E1.3404
G1 X121.770 Y95.830 E1.3443
G1 X124.170 Y98.230 E1.5136
G1 X124.200 Y98.303 E1.5176
G1 X124.200 Y121.697 E2.6847
G1 X124.170 Y121.770 E2.6887
G1 X121.770 Y124.170 E2.8579
G1 X121.697 Y124.200 E2.8619
G1 X98.303 Y124.200 E4.0290
G1 X98.230 Y124.170 E4.0330
G1 X95.830 Y121.770 E4.2023
G1 X95.800 Y121.697 E4.2062
G1 X95.800 Y98.303 E5.3733
G1 X95.830 Y98.230 E5.3773
G92 E0
G1 E-1.0000 F3600
; inner perimeter
G1 X100.196 Y100.196 F4800
G1 X100.196 Y100.399 F4800
G1 X100.600 Y100.600 F4800
G1 E0.0000 F3600
G92 E0
G1 X119.400 Y100.600 E0.9379 F1350
G1 X119.400 Y119.400 E1.8759
G1 X100.600 Y119.400 E2.8138
G1 X100.600 Y100.600 E3.7517
; outer perimeter
G1 X100.200 Y100.200 F4800
G92 E0
G1 X119.800 Y100.200 E0.9778 F900
G1 X119.800 Y119.800 E1.9557
G1 X100.200 Y119.800 E2.9335
G1 X100.200 Y100.200 E3.9114
G1 X102.200 Y100.200 F3600
; solid layer
G1 X119.042 Y100.940 F4800
G92 E0
G1 X119.060 Y100.958 E0.0013 F1440
G1 X119.060 Y101.524 E0.0295
G1 X118.476 Y100.940 E0.0707
G1 X117.911 Y100.940 E0.0989
G1 X119.060 Y102.089 E0.1800
G1 X119.060 Y102.655 E0.2082
G1 X117.345 Y100.940 E0.3292
G1 X116.779 Y100.940 E0.3575
G1 X119.060 Y103.221 E0.5184
G1 X119.060 Y103.786 E0.5466
G1 X116.214 Y100.940 E0.7474
G1 X115.648 Y100.940 E0.7757
G1 X119.060 Y104.352 E1.0164
G1 X119.060 Y104.918 E1.0446
G1 X115.082 Y100.940 E1.3253
G1 X114.516 Y100.940 E1.3535
G1 X119.060 Y105.484 E1.6741
G1 X119.060 Y106.049 E1.7023
G1 X113.951 Y100.940 E2.0628
G1 X113.385 Y100.940 E2.0910
G1 X119.060 Y106.615 E2.4914
G1 X119.060 Y107.181 E2.5196
G1 X112.819 Y100.940 E2.9599
G1 X112.254 Y100.940 E2.9882
G1 X119.060 Y107.746 E3.4684
G1 X119.060 Y108.312 E3.4966
G1 X111.688 Y100.940 E4.0167
G1 X111.122 Y100.940 E4.0449
G1 X119.060 Y108.878 E4.6050
G1 X119.060 Y109.443 E4.6332
G1 X110.557 Y100.940 E5.2332
G1 X109.991 Y100.940 E5.2614
G1 X119.060 Y110.009 E5.9013
G1 X119.060 Y110.575 E5.9295
G1 X109.425 Y100.940 E6.6093
G1 X108.860 Y100.940 E6.6375
G1 X119.060 Y111.140 E7.3572
G1 X119.060 Y111.706 E7.3854
G1 X108.294 Y100.940 E8.1450
G1 X107.728 Y100.940 E8.1732
G1 X119.060 Y112.272 E8.9727
G1 X119.060 Y112.837 E9.0010
G1 X107.163 Y100.940 E9.8404
G1 X106.597 Y100.940 E9.8686
G1 X119.060 Y113.403 E10.7480
G1 X119.060 Y113.969 E10.7762
G1 X106.031 Y100.940 E11.6954
G1 X105.465 Y100.940 E11.7237
G1 X119.060 Y114.535 E12.6828
G1 X119.060 Y115.100 E12.7110
G1 X104.900 Y100.940 E13.7101
G1 X104.334 Y100.940 E13.7383
G1 X119.060 Y115.666 E14.7773
G1 X119.060 Y116.232 E14.8056
G1 X103.768 Y100.940 E15.8845
G1 X103.203 Y100.940 E15.9127
G1 X119.060 Y116.797 E17.0315
G1 X119.060 Y117.363 E17.0597
G1 X102.637 Y100.940 E18.2184
G1 X102.071 Y100.940 E18.2467
G1 X119.060 Y117.929 E19.4453
G1 X119.060 Y118.494 E19.4735
G1 X101.506 Y100.940 E20.7121
G1 X100.940 Y100.940 E20.7403
G1 X119.060 Y119.060 E22.0188
G1 X118.494 Y119.060 E22.0470
G1 X100.940 Y101.506 E23.2855
G1 X100.940 Y102.071 E23.3138
G1 X117.929 Y119.060 E24.5124
G1 X117.363 Y119.060 E24.5406
G1 X100.940 Y102.637 E25.6993
G1 X100.940 Y103.203 E25.7276
G1 X116.797 Y119.060 E26.8464
G1 X116.232 Y119.060 E26.8746
G1 X100.940 Y103.768 E27.9535
G1 X100.940 Y104.334 E27.9817
G1 X115.666 Y119.060 E29.0207
G1 X115.100 Y119.060 E29.0489
G1 X100.940 Y104.900 E30.0480
G1 X100.940 Y105.465 E30.0763
G1 X114.535 Y119.060 E31.0354
G1 X113.969 Y119.060 E31.0636
G1 X100.940 Y106.031 E31.9829
G1 X100.940 Y106.597 E32.0111
G1 X113.403 Y119.060 E32.8905
G1 X112.837 Y119.060 E32.9187
G1 X100.940 Y107.163 E33.7581
G1 X100.940 Y107.728 E33.7863
G1 X112.272 Y119.060 E34.5859
G1 X111.706 Y119.060 E34.6141
G1 X100.940 Y108.294 E35.3737
G1 X100.940 Y108.860 E35.4019
G1 X111.140 Y119.060 E36.1216
G1 X110.575 Y119.060 E36.1498
G1 X100.940 Y109.425 E36.8296
G1 X100.940 Y109.991 E36.8578
G1 X110.009 Y119.060 E37.4977
G1 X109.443 Y119.060 E37.5259
G1 X100.940 Y110.557 E38.1259
G1 X100.940 Y111.122 E38.1541
G1 X108.878 Y119.060 E38.7141
G1 X108.312 Y119.060 E38.7424
G1 X100.940 Y111.688 E39.2625
G1 X100.940 Y112.254 E39.2907
G1 X107.746 Y119.060 E39.7709
G1 X107.181 Y119.060 E39.7992
G1 X100.940 Y112.819 E40.2395
G1 X100.940 Y113.385 E40.2677
G1 X106.615 Y119.060 E40.6681
G1 X106.049 Y119.060 E40.6963
G1 X100.940 Y113.951 E41.0568
G1 X100.940 Y114.516 E41.0850
G1 X105.484 Y119.060 E41.4056
G1 X104.918 Y119.060 E41.4338
G1 X100.940 Y115.082 E41.7145
G1 X100.940 Y115.648 E41.7427
G1 X104.352 Y119.060 E41.9835
G1 X103.787 Y119.060 E42.0117
G1 X100.940 Y116.213 E42.2125
G1 X100.940 Y116.779 E42.2407
G1 X103.221 Y119.060 E42.4017
G1 X102.655 Y119.060 E42.4299
G1 X100.940 Y117.345 E42.5509
G1 X100.940 Y117.911 E42.5791
G1 X102.089 Y119.060 E42.6602
G1 X101.524 Y119.060 E42.6884
G1 X100.940 Y118.476 E42.7296
G1 X100.940 Y119.042 E42.7578
G1 X100.958 Y119.060 E42.7591
G92 E0
G1 E-1.0000 F3600
; layer 2, Z = 0.600
M106 S255
; inner perimeter
G1 X100.600 Y119.400 F4800
G1 Z0.500 F1002
G1 E0.0000 F3600
G92 E0
G1 X100.600 Y100.600 E0.9379 F2700
G1 X119.400 Y100.600 E1.8759
G1 X119.400 Y119.400 E2.8138
G1 X100.600 Y119.400 E3.7517
; outer perimeter
G1 X100.200 Y119.800 F4800
G92 E0
G1 X100.200 Y100.200 E0.9778 F1800
G1 X119.800 Y100.200 E1.9557
G1 X119.800 Y119.800 E2.9335
G1 X100.200 Y119.800 E3.9114
G1 X100.200 Y117.800 F3600
; solid layer
G1 X100.940 Y100.958 F4800
G92 E0
G1 X100.958 Y100.940 E0.0013 F2880
G1 X101.524 Y100.940 E0.0295
G1 X100.940 Y101.524 E0.0707
G1 X100.940 Y102.089 E0.0989
G1 X102.089 Y100.940 E0.1800
G1 X102.655 Y100.940 E0.2082
G1 X100.940 Y102.655 E0.3292
G1 X100.940 Y103.221 E0.3575
G1 X103.221 Y100.940 E0.5184
G1 X103.787 Y100.940 E0.5466
G1 X100.940 Y103.787 E0.7475
G1 X100.940 Y104.352 E0.7757
G1 X104.352 Y100.940 E1.0164
G1 X104.918 Y100.940 E1.0446
G1 X100.940 Y104.918 E1.3253
G1 X100.940 Y105.484 E1.3535
G1 X105.484 Y100.940 E1.6741
G1 X106.049 Y100.940 E1.7023
G1 X100.940 Y106.049 E2.0628
G1 X100.940 Y106.615 E2.0910
G1 X106.615 Y100.940 E2.4914
G1 X107.181 Y100.940 E2.5197
G1 X100.940 Y107.181 E2.9600
G1 X100.940 Y107.746 E2.9882
G1 X107.746 Y100.940 E3.4684
G1 X108.312 Y100.940 E3.4966
G1 X100.940 Y108.312 E4.0168
G1 X100.940 Y108.878 E4.0450
G1 X108.878 Y100.940 E4.6050
G1 X109.443 Y100.940 E4.6333
G1 X100.940 Y109.443 E5.2332
G1 X100.940 Y110.009 E5.2614
G1 X110.009 Y100.940 E5.9013
G1 X110.575 Y100.940 E5.9295
G1 X100.940 Y110.575 E6.6093
G1 X100.940 Y111.140 E6.6375
G1 X111.140 Y100.940 E7.3572
G1 X111.706 Y100.940 E7.3855
G1 X100.940 Y111.706 E8.1451
G1 X100.940 Y112.272 E8.1733
G1 X112.272 Y100.940 E8.9728
G1 X112.837 Y100.940 E9.0010
G1 X100.940 Y112.837 E9.8405
G1 X100.940 Y113.403 E9.8687
G1 X113.403 Y100.940 E10.7480
G1 X113.969 Y100.940 E10.7763
G1 X100.940 Y113.969 E11.6955
G1 X100.940 Y114.535 E11.7237
G1 X114.535 Y100.940 E12.6829
G1 X115.100 Y100.940 E12.7111
G1 X100.940 Y115.100 E13.7102
G1 X100.940 Y115.666 E13.7384
G1 X115.666 Y100.940 E14.7774
G1 X116.232 Y100.940 E14.8056
G1 X100.940 Y116.232 E15.8845
G1 X100.940 Y116.797 E15.9128
G1 X116.797 Y100.940 E17.0316
G1 X117.363 Y100.940 E17.0598
G1 X100.940 Y117.363 E18.2185
G1 X100.940 Y117.929 E18.2468
G1 X117.929 Y100.940 E19.4454
G1 X118.494 Y100.940 E19.4736
G1 X100.940 Y118.494 E20.7122
G1 X100.940 Y119.060 E20.7404
G1 X119.060 Y100.940 E22.0189
G1 X119.060 Y101.506 E22.0471
G1 X101.506 Y119.060 E23.2856
G1 X102.071 Y119.060 E23.3139
G1 X119.060 Y102.071 E24.5125
G1 X119.060 Y102.637 E24.5407
G1 X102.637 Y119.060 E25.6994
G1 X103.203 Y119.060 E25.7277
G1 X119.060 Y103.203 E26.8465
G1 X119.060 Y103.768 E26.8747
G1 X103.768 Y119.060 E27.9536
G1 X104.334 Y119.060 E27.9818
G1 X119.060 Y104.334 E29.0208
G1 X119.060 Y104.900 E29.0490
G1 X104.900 Y119.060 E30.0481
G1 X105.466 Y119.060 E30.0763
G1 X119.060 Y105.466 E31.0355
G1 X119.060 Y106.031 E31.0637
G1 X106.031 Y119.060 E31.9830
G1 X106.597 Y119.060 E32.0112
G1 X119.060 Y106.597 E32.8905
G1 X119.060 Y107.163 E32.9188
G1 X107.163 Y119.060 E33.7582
G1 X107.728 Y119.060 E33.7864
G1 X119.060 Y107.728 E34.5859
G1 X119.060 Y108.294 E34.6141
G1 X108.294 Y119.060 E35.3737
G1 X108.860 Y119.060 E35.4020
G1 X119.060 Y108.860 E36.1217
G1 X119.060 Y109.425 E36.1499
G1 X109.425 Y119.060 E36.8297
G1 X109.991 Y119.060 E36.8579
G1 X119.060 Y109.991 E37.4977
G1 X119.060 Y110.557 E37.5260
G1 X110.557 Y119.060 E38.1259
G1 X111.122 Y119.060 E38.1541
G1 X119.060 Y111.122 E38.7142
G1 X119.060 Y111.688 E38.7424
G1 X111.688 Y119.060 E39.2625
G1 X112.254 Y119.060 E39.2908
G1 X119.060 Y112.254 E39.7710
G1 X119.060 Y112.819 E39.7992
G1 X112.819 Y119.060 E40.2395
G1 X113.385 Y119.060 E40.2677
